resources/assets/svg/logotype.svg

<?xml version="1.0" encoding="UTF-8"?>
<svg width="50px" height="75px" viewBox="0 0 50 75" version="1.1" xmlns="http://www.w3.org/2000/svg" xmlns:xlink="http://www.w3.org/1999/xlink" xmlns:sketch="http://www.bohemiancoding.com/sketch/ns">
    <!-- Generator: Sketch 3.4.2 (15855) - http://www.bohemiancoding.com/sketch -->
    <title>logotype</title>
    <desc>Created with Sketch.</desc>
    <defs></defs>
    <g id="Page-1" stroke="none" stroke-width="1" fill="none" fill-rule="evenodd" sketch:type="MSPage">
        <g id="logotype" sketch:type="MSArtboardGroup" fill="#E8E8E8">
            <path d="M0,0 L50,0 L50,75 L0,75 L0,0 Z M11.332,39.876 C11.9853366,40.4360028 12.7086627,40.8933316 13.502,41.248 C14.2953373,41.6026684 15.0746628,41.78 15.84,41.78 C16.698671,41.78 17.3379979,41.6213349 17.758,41.304 C18.1780021,40.9866651 18.388,40.557336 18.388,40.016 C18.388,39.7359986 18.3273339,39.4933344 18.206,39.288 C18.0846661,39.0826656 17.9073345,38.9006675 17.674,38.742 C17.4406655,38.5833325 17.1606683,38.4340007 16.834,38.294 C16.5073317,38.1539993 16.148002,38.0000008 15.756,37.832 L13.376,36.824 C12.909331,36.6373324 12.4566689,36.3946682 12.018,36.096 C11.5793311,35.7973318 11.1873351,35.4473353 10.842,35.046 C10.4966649,34.6446647 10.2213344,34.1780027 10.016,33.646 C9.81066564,33.1139973 9.708,32.5120034 9.708,31.84 C9.708,31.0933296 9.86666508,30.38867 10.184,29.726 C10.5013349,29.06333 10.9493304,28.4846691 11.528,27.99 C12.1066696,27.4953309 12.7926627,27.1080014 13.586,26.828 C14.3793373,26.5479986 15.2519952,26.408 16.204,26.408 C17.2680053,26.408 18.3179948,26.6133313 19.354,27.024 C20.3900052,27.4346687 21.2999961,28.0319961 22.084,28.816 L19.984,31.42 C19.3866637,30.953331 18.7893363,30.5940013 18.192,30.342 C17.5946637,30.0899987 16.9320036,29.964 16.204,29.964 C15.4946631,29.964 14.9300021,30.1086652 14.51,30.398 C14.0899979,30.6873348 13.88,31.0933307 13.88,31.616 C13.88,31.8960014 13.9499993,32.133999 14.09,32.33 C14.2300007,32.526001 14.4259987,32.7033325 14.678,32.862 C14.9300013,33.0206675 15.2239983,33.1699993 15.56,33.31 C15.8960017,33.4500007 16.259998,33.6039992 16.652,33.772 L19.004,34.724 C20.1240056,35.1720022 21.0059968,35.7879961 21.65,36.572 C22.2940032,37.3560039 22.616,38.3919936 22.616,39.68 C22.616,40.4453372 22.4620015,41.1686633 22.154,41.85 C21.8459985,42.5313367 21.3980029,43.1286641 20.81,43.642 C20.2219971,44.1553359 19.498671,44.5659985 18.64,44.874 C17.781329,45.1820015 16.8106721,45.336 15.728,45.336 C14.5333274,45.336 13.3433393,45.1166689 12.158,44.678 C10.9726607,44.2393311 9.913338,43.5813377 8.98,42.704 L11.332,39.876 Z M9.156,49.744 L14.308,49.744 C15.708007,49.744 16.9679944,49.9213316 18.088,50.276 C19.2080056,50.6306684 20.1693293,51.176663 20.972,51.914 C21.7746707,52.651337 22.3906645,53.5893276 22.82,54.728 C23.2493355,55.8666724 23.464,57.2199922 23.464,58.788 C23.464,60.3560078 23.2493355,61.7186609 22.82,62.876 C22.3906645,64.0333391 21.7840039,64.9899962 21,65.746 C20.2159961,66.5020038 19.2780055,67.0666648 18.186,67.44 C17.0939945,67.8133352 15.8760067,68 14.532,68 L9.156,68 L9.156,49.744 Z M26.936,49.744 L32.088,49.744 C33.488007,49.744 34.7479944,49.9213316 35.868,50.276 C36.9880056,50.6306684 37.9493293,51.176663 38.752,51.914 C39.5546707,52.651337 40.1706645,53.5893276 40.6,54.728 C41.0293355,55.8666724 41.244,57.2199922 41.244,58.788 C41.244,60.3560078 41.0293355,61.7186609 40.6,62.876 C40.1706645,64.0333391 39.5640039,64.9899962 38.78,65.746 C37.9959961,66.5020038 37.0580055,67.0666648 35.966,67.44 C34.8739945,67.8133352 33.6560067,68 32.312,68 L26.936,68 L26.936,49.744 Z M14.056,64.668 C14.8400039,64.668 15.5493302,64.5653344 16.184,64.36 C16.8186698,64.1546656 17.3599978,63.8233356 17.808,63.366 C18.2560022,62.9086644 18.6059987,62.3066704 18.858,61.56 C19.1100013,60.8133296 19.236,59.8893388 19.236,58.788 C19.236,57.7053279 19.1100013,56.795337 18.858,56.058 C18.6059987,55.320663 18.2560022,54.7326689 17.808,54.294 C17.3599978,53.8553311 16.8186698,53.5426676 16.184,53.356 C15.5493302,53.1693324 14.8400039,53.076 14.056,53.076 L13.272,53.076 L13.272,64.668 L14.056,64.668 Z M31.836,64.668 C32.6200039,64.668 33.3293302,64.5653344 33.964,64.36 C34.5986698,64.1546656 35.1399978,63.8233356 35.588,63.366 C36.0360022,62.9086644 36.3859987,62.3066704 36.638,61.56 C36.8900013,60.8133296 37.016,59.8893388 37.016,58.788 C37.016,57.7053279 36.8900013,56.795337 36.638,56.058 C36.3859987,55.320663 36.0360022,54.7326689 35.588,54.294 C35.1399978,53.8553311 34.5986698,53.5426676 33.964,53.356 C33.3293302,53.1693324 32.6200039,53.076 31.836,53.076 L31.052,53.076 L31.052,64.668 L31.836,64.668 Z" sketch:type="MSShapeGroup"></path>
        </g>
    </g>
</svg>

<svg width="50" height="75" viewBox="0 0 50 75" xmlns="http://www.w3.org/2000/svg"><title>logotype</title><path d="M0 0h50v75H0V0zm11.332 39.876c.653.56 1.377 1.017 2.17 1.372.793.355 1.573.532 2.338.532.86 0 1.498-.16 1.918-.476.42-.317.63-.747.63-1.288 0-.28-.06-.523-.182-.728-.12-.205-.3-.387-.532-.546-.233-.16-.513-.308-.84-.448l-1.078-.462-2.38-1.008c-.467-.187-.92-.43-1.358-.728-.44-.3-.83-.65-1.176-1.05-.345-.4-.62-.868-.826-1.4-.205-.532-.308-1.134-.308-1.806 0-.747.16-1.45.476-2.114.317-.663.765-1.24 1.344-1.736.58-.495 1.265-.882 2.058-1.162.793-.28 1.666-.42 2.618-.42 1.064 0 2.114.205 3.15.616 1.036.41 1.946 1.008 2.73 1.792l-2.1 2.604c-.597-.467-1.195-.826-1.792-1.078-.597-.252-1.26-.378-1.988-.378-.71 0-1.274.145-1.694.434-.42.29-.63.695-.63 1.218 0 .28.07.518.21.714.14.196.336.373.588.532.252.16.546.308.882.448.336.14.7.294 1.092.462l2.352.952c1.12.448 2.002 1.064 2.646 1.848.644.784.966 1.82.966 3.108 0 .765-.154 1.49-.462 2.17-.308.68-.756 1.28-1.344 1.792-.588.513-1.31.924-2.17 1.232-.86.308-1.83.462-2.912.462-1.195 0-2.385-.22-3.57-.658-1.185-.44-2.245-1.097-3.178-1.974l2.352-2.828zm-2.176 9.868h5.152c1.4 0 2.66.177 3.78.532 1.12.355 2.08.9 2.884 1.638.803.737 1.42 1.675 1.848 2.814.43 1.14.644 2.492.644 4.06 0 1.568-.215 2.93-.644 4.088-.43 1.157-1.036 2.114-1.82 2.87-.784.756-1.722 1.32-2.814 1.694-1.092.373-2.31.56-3.654.56H9.156V49.744zm17.78 0h5.152c1.4 0 2.66.177 3.78.532 1.12.355 2.08.9 2.884 1.638.803.737 1.42 1.675 1.848 2.814.43 1.14.644 2.492.644 4.06 0 1.568-.215 2.93-.644 4.088-.43 1.157-1.036 2.114-1.82 2.87-.784.756-1.722 1.32-2.814 1.694-1.092.373-2.31.56-3.654.56h-5.376V49.744zm-12.88 14.924c.784 0 1.493-.103 2.128-.308.635-.205 1.176-.537 1.624-.994.448-.457.798-1.06 1.05-1.806.252-.747.378-1.67.378-2.772 0-1.083-.126-1.993-.378-2.73-.252-.737-.602-1.325-1.05-1.764-.448-.44-.99-.75-1.624-.938-.635-.187-1.344-.28-2.128-.28h-.784v11.592h.784zm17.78 0c.784 0 1.493-.103 2.128-.308.635-.205 1.176-.537 1.624-.994.448-.457.798-1.06 1.05-1.806.252-.747.378-1.67.378-2.772 0-1.083-.126-1.993-.378-2.73-.252-.737-.602-1.325-1.05-1.764-.448-.44-.99-.75-1.624-.938-.635-.187-1.344-.28-2.128-.28h-.784v11.592h.784z" fill="#E8E8E8" fill-rule="evenodd"/></svg>
